svgs/thin/signal-stream-slash.svg

<svg xmlns="http://www.w3.org/2000/svg" viewBox="0 0 640 512"><!--! Font Awesome Pro 6.3.0 by @fontawesome - https://fontawesome.com License - https://fontawesome.com/license (Commercial License) Copyright 2023 Fonticons, Inc. --><path d="M480 256c0 11.06-1.213 21.92-3.389 32.5l13.41 10.66C493.6 285.2 496 270.8 496 256c0-47-18.3-91.22-51.55-124.4c-3.125-3.125-8.188-3.125-11.31 0s-3.125 8.188 0 11.31C463.4 173.1 480 213.3 480 256zM592 256c0 37.36-7.602 73.51-21.85 106.9l12.86 10.22C599.2 336.7 608 297.1 608 256c0-76.94-29.95-149.3-84.36-203.7c-3.125-3.125-8.188-3.125-11.31 0s-3.125 8.188 0 11.31C563.7 115 592 183.3 592 256zM160 256c0-11.07 1.215-21.93 3.393-32.52L149.1 212.8C146.4 226.8 144 241.2 144 256c0 47 18.3 91.22 51.55 124.4c1.562 1.562 3.609 2.344 5.656 2.344S205.3 382 206.9 380.4c3.125-3.125 3.125-8.188 0-11.31C176.6 338.9 160 298.8 160 256zM48 256c0-37.36 7.602-73.52 21.86-106.9L57 138.9C40.78 175.3 32 214.9 32 256c0 76.94 29.95 149.2 84.36 203.7C117.9 461.2 119.1 462 122 462s4.094-.7813 5.656-2.344c3.125-3.125 3.125-8.188 0-11.31C76.3 396.1 48 328.7 48 256zM636.1 497.7L12.99 1.73C11.53 .5664 9.773 0 8.027 0C5.676 0 3.336 1.029 1.738 3.012c-2.75 3.469-2.172 8.5 1.281 11.25l623.1 496C628.5 511.4 630.2 512 631.1 512c2.344 0 4.688-1.031 6.266-3.016C641 505.5 640.4 500.5 636.1 497.7z"/></svg>

<svg xmlns="http://www.w3.org/2000/svg" viewBox="0 0 640 512"><!-- Font Awesome Pro 6.0.0-alpha2 by @fontawesome - https://fontawesome.com License - https://fontawesome.com/license (Commercial License) --><path d="M479.999 256C479.999 267.062 478.786 277.92 476.611 288.508L490.025 299.172C493.56 285.16 495.999 270.822 495.999 256C495.999 209 477.702 164.781 444.452 131.562C441.327 128.438 436.265 128.438 433.14 131.562S430.015 139.75 433.14 142.875C463.359 173.094 479.999 213.25 479.999 256ZM591.999 256C591.999 293.357 584.398 329.514 570.146 362.863L583.001 373.082C599.222 336.68 607.999 297.055 607.999 256C607.999 179.062 578.046 106.75 523.64 52.344C520.515 49.219 515.452 49.219 512.327 52.344S509.202 60.531 512.327 63.656C563.702 115.031 591.999 183.344 591.999 256ZM159.999 256C159.999 244.934 161.214 234.072 163.392 223.48L149.976 212.818C146.439 226.832 143.999 241.174 143.999 256C143.999 303 162.296 347.219 195.546 380.438C197.109 382 199.156 382.781 201.202 382.781S205.296 382 206.859 380.438C209.984 377.313 209.984 372.25 206.859 369.125C176.64 338.906 159.999 298.75 159.999 256ZM47.999 256C47.999 218.641 55.601 182.482 69.855 149.131L56.999 138.912C40.777 175.314 31.999 214.945 31.999 256C31.999 332.938 61.952 405.25 116.359 459.656C117.921 461.219 119.968 462 122.015 462S126.109 461.219 127.671 459.656C130.796 456.531 130.796 451.469 127.671 448.344C76.296 396.969 47.999 328.656 47.999 256ZM636.982 497.734L12.99 1.73C11.527 0.566 9.773 0 8.027 0H8.025C5.673 0 3.335 1.029 1.738 3.012C-1.012 6.48 -0.434 11.512 3.019 14.262L627.011 510.266C628.497 511.438 630.247 512 631.997 512C634.341 512 636.685 510.969 638.263 508.984C641.013 505.516 640.435 500.484 636.982 497.734Z"/></svg>
